packages/icons/src/SVG/forward-30.svg

<svg width="12" height="12" viewBox="0 0 12 12" >
<path d="M4.02114 2C1.77224 2 -0.0394977 3.83469 0.000654749 6.07142C0.039806 8.25237 1.82832 10 4.02114 10H8V12L12 9.5L8 7V9H4.02114C2.37653 9 1.03514 7.68928 1.00578 6.05356C0.975662 4.37602 2.33447 3 4.02114 3V2Z" />
<path d="M7.87598 1.39453C7.87598 1.62012 7.8304 1.81608 7.73926 1.98242C7.64811 2.14876 7.52279 2.28548 7.36328 2.39258C7.20605 2.4974 7.02376 2.57259 6.81641 2.61816V2.64209C7.21517 2.69222 7.51595 2.81755 7.71875 3.01807C7.92383 3.21859 8.02637 3.48405 8.02637 3.81445C8.02637 4.10384 7.95687 4.36247 7.81787 4.59033C7.67887 4.81592 7.46582 4.99365 7.17871 5.12354C6.8916 5.25342 6.52246 5.31836 6.07129 5.31836C5.80013 5.31836 5.54834 5.29671 5.31592 5.25342C5.08577 5.21012 4.86702 5.14062 4.65967 5.04492V4.33057C4.87158 4.43538 5.09717 4.51628 5.33643 4.57324C5.57568 4.63021 5.80241 4.65869 6.0166 4.65869C6.43359 4.65869 6.73096 4.58122 6.90869 4.42627C7.08643 4.26904 7.17529 4.05257 7.17529 3.77686C7.17529 3.59912 7.12858 3.45329 7.03516 3.33936C6.94401 3.22542 6.8016 3.13997 6.60791 3.08301C6.4165 3.02604 6.16927 2.99756 5.86621 2.99756H5.42529V2.35156H5.86963C6.15902 2.35156 6.39144 2.31738 6.56689 2.24902C6.74235 2.17839 6.86881 2.08154 6.94629 1.9585C7.02604 1.83545 7.06592 1.69189 7.06592 1.52783C7.06592 1.31364 6.99642 1.1473 6.85742 1.02881C6.71842 0.90804 6.51221 0.847656 6.23877 0.847656C6.07015 0.847656 5.91634 0.867025 5.77734 0.905762C5.64062 0.944499 5.51416 0.99349 5.39795 1.05273C5.28174 1.11198 5.17122 1.17578 5.06641 1.24414L4.68018 0.687012C4.8693 0.545736 5.09489 0.426107 5.35693 0.328125C5.61898 0.230143 5.92432 0.181152 6.27295 0.181152C6.78564 0.181152 7.18099 0.291667 7.45898 0.512695C7.73698 0.731445 7.87598 1.02539 7.87598 1.39453Z" />
<path d="M11.8232 2.74805C11.8232 3.15137 11.7913 3.51253 11.7275 3.83154C11.666 4.14827 11.568 4.41715 11.4336 4.63818C11.2992 4.85921 11.1237 5.02783 10.9072 5.14404C10.6908 5.26025 10.4287 5.31836 10.1211 5.31836C9.736 5.31836 9.41813 5.21696 9.16748 5.01416C8.91683 4.80908 8.73112 4.51514 8.61035 4.13232C8.48958 3.74723 8.4292 3.28581 8.4292 2.74805C8.4292 2.21029 8.48389 1.75 8.59326 1.36719C8.70492 0.982096 8.88493 0.687012 9.1333 0.481934C9.38167 0.276855 9.71094 0.174316 10.1211 0.174316C10.5085 0.174316 10.8275 0.276855 11.0781 0.481934C11.3311 0.684733 11.5179 0.978678 11.6387 1.36377C11.7617 1.74658 11.8232 2.20801 11.8232 2.74805ZM9.23926 2.74805C9.23926 3.1696 9.2666 3.52165 9.32129 3.8042C9.37825 4.08675 9.47168 4.29867 9.60156 4.43994C9.73145 4.57894 9.90462 4.64844 10.1211 4.64844C10.3376 4.64844 10.5107 4.57894 10.6406 4.43994C10.7705 4.30094 10.8639 4.09017 10.9209 3.80762C10.9801 3.52507 11.0098 3.17188 11.0098 2.74805C11.0098 2.32878 10.9813 1.97786 10.9243 1.69531C10.8674 1.41276 10.7739 1.20085 10.644 1.05957C10.5142 0.916016 10.3398 0.844238 10.1211 0.844238C9.90234 0.844238 9.72803 0.916016 9.59814 1.05957C9.47054 1.20085 9.37825 1.41276 9.32129 1.69531C9.2666 1.97786 9.23926 2.32878 9.23926 2.74805Z" />
</svg>

<!-- Generated by IcoMoon.io -->
<svg version="1.1" xmlns="http://www.w3.org/2000/svg" width="12" height="12" viewBox="0 0 12 12">
<title>forward-30</title>
<path fill="#4c505b" d="M4.021 2c-2.249 0-4.061 1.835-4.020 4.071 0.039 2.181 1.828 3.929 4.020 3.929h3.979v2l4-2.5-4-2.5v2h-3.979c-1.645 0-2.986-1.311-3.015-2.946-0.030-1.678 1.329-3.054 3.015-3.054v-1z"></path>
<path fill="#4c505b" d="M7.876 1.395c0 0.226-0.046 0.422-0.137 0.588s-0.216 0.303-0.376 0.41c-0.157 0.105-0.34 0.18-0.547 0.226v0.024c0.399 0.050 0.7 0.175 0.902 0.376 0.205 0.201 0.308 0.466 0.308 0.796 0 0.289-0.070 0.548-0.209 0.776-0.139 0.226-0.352 0.403-0.639 0.533s-0.656 0.195-1.107 0.195c-0.271 0-0.523-0.022-0.755-0.065-0.23-0.043-0.449-0.113-0.656-0.208v-0.714c0.212 0.105 0.437 0.186 0.677 0.243s0.466 0.085 0.68 0.085c0.417 0 0.714-0.077 0.892-0.232 0.178-0.157 0.267-0.374 0.267-0.649 0-0.178-0.047-0.324-0.14-0.437-0.091-0.114-0.234-0.199-0.427-0.256-0.191-0.057-0.439-0.085-0.742-0.085h-0.441v-0.646h0.444c0.289 0 0.522-0.034 0.697-0.103 0.175-0.071 0.302-0.167 0.379-0.291 0.080-0.123 0.12-0.267 0.12-0.431 0-0.214-0.070-0.381-0.209-0.499-0.139-0.121-0.345-0.181-0.619-0.181-0.169 0-0.322 0.019-0.461 0.058-0.137 0.039-0.263 0.088-0.379 0.147s-0.227 0.123-0.332 0.191l-0.386-0.557c0.189-0.141 0.415-0.261 0.677-0.359s0.567-0.147 0.916-0.147c0.513 0 0.908 0.111 1.186 0.332 0.278 0.219 0.417 0.513 0.417 0.882z"></path>
<path fill="#4c505b" d="M11.823 2.748c0 0.403-0.032 0.764-0.096 1.083-0.062 0.317-0.16 0.586-0.294 0.807s-0.31 0.39-0.526 0.506c-0.216 0.116-0.479 0.174-0.786 0.174-0.385 0-0.703-0.101-0.954-0.304-0.251-0.205-0.436-0.499-0.557-0.882-0.121-0.385-0.181-0.847-0.181-1.384s0.055-0.998 0.164-1.381c0.112-0.385 0.292-0.68 0.54-0.885s0.578-0.308 0.988-0.308c0.387 0 0.706 0.103 0.957 0.308 0.253 0.203 0.44 0.497 0.561 0.882 0.123 0.383 0.184 0.844 0.184 1.384zM9.239 2.748c0 0.422 0.027 0.774 0.082 1.056 0.057 0.283 0.15 0.494 0.28 0.636 0.13 0.139 0.303 0.209 0.52 0.209s0.39-0.070 0.52-0.209 0.223-0.35 0.28-0.632c0.059-0.283 0.089-0.636 0.089-1.060 0-0.419-0.028-0.77-0.086-1.053s-0.15-0.494-0.28-0.636c-0.13-0.144-0.304-0.215-0.523-0.215s-0.393 0.072-0.523 0.215c-0.128 0.141-0.22 0.353-0.277 0.636-0.055 0.283-0.082 0.633-0.082 1.053z"></path>
</svg>
